packages/kaspersky-hexa-ui-icons/src/iconsSVGs/24/Inherit.svg

<svg xmlns="http://www.w3.org/2000/svg" width="24" height="24" fill="none" viewBox="0 0 24 24"><path fill="#000" d="M14.4937 20.2929c-.3905.3905-.3905 1.0237 0 1.4142s1.0237.3905 1.4142 0l4.7063-4.7062c.3905-.3906.3905-1.0237 0-1.4143l-4.7063-4.7062c-.3905-.3905-1.0236-.3905-1.4142 0s-.3905 1.0237 0 1.4142l2.9992 2.9992h-5.6173C8.6306 15.2938 6 12.6632 6 9.4182V3c0-.5522-.4477-1-1-1s-1 .4477-1 1v6.4182c0 4.3496 3.526 7.8756 7.8756 7.8756h5.6172z"/></svg>

<svg width="24" height="24" viewBox="0 0 24 24" fill="none" xmlns="http://www.w3.org/2000/svg">
<path d="M14.4937 20.2929C14.1032 20.6834 14.1032 21.3166 14.4937 21.7071C14.8843 22.0976 15.5174 22.0976 15.9079 21.7071L20.6142 17.0009C21.0047 16.6103 21.0047 15.9772 20.6142 15.5866L15.9079 10.8804C15.5174 10.4899 14.8843 10.4899 14.4937 10.8804C14.1032 11.2709 14.1032 11.9041 14.4937 12.2946L17.4929 15.2938H11.8756C8.63061 15.2938 6 12.6632 6 9.4182L6 3.00003C6 2.44775 5.55229 2 5 2C4.44772 2 4 2.44772 4 3L4 9.4182C4 13.7678 7.52604 17.2938 11.8756 17.2938H17.4928L14.4937 20.2929Z" fill="black"/>
</svg>
